website/ui/logos/3rd-friday.svg

<svg xmlns="http://www.w3.org/2000/svg" viewBox="0 0 70 70">
  <g fill="none" fill-rule="evenodd">
    <path
      fill="#505050"
      d="M63.127 56.125c-2.208 9.61-11.79 15.613-21.401 13.405L13.86 63.127C4.251 60.92-1.75 51.337.457 41.727L6.86 13.86C9.068 4.251 18.65-1.75 28.26.458l27.865 6.401c9.61 2.209 15.612 11.79 13.404 21.402l-6.402 27.864z"
    />
    <path
      fill="#8C8A8B"
      d="M15.634 62.91l-1.215.139-.577 2.512 11.954 2.19.176-2.883-1.124-.258 2.464-12.24L49.167 56l6.697-35.209-31.151-7.088z"
    />
    <path
      fill="#FFF"
      d="M24.076 22.988l1.487.341-.775 3.371-14.372-5.599.797-3.47 1.686.387S14.222 5.9 25.403 7.216l30.563 5.56s9.063 2.813 7.516 12.271l-1.82 10.648-3.291 3.42s-.381.747.07 1.06c.45.311 1.398 3.453 1.398 3.453L57.73 55.984s-2.28 8.558-11.196 6.928c-8.917-1.632-31.234-5.82-31.234-5.82S5.675 55.82 8.27 43.158l-2.15-.181.667-3.813 16.068.037-.653 3.296-1.876-.014s-2.124 3.793 2.727 4.49l20.113 3.785 3.159 1.248 1.943-9.366-3.08.231-13.677-2.725s-2.524-.37-2.275-2.82l1.313-6.17s.57-2.479 3.27-1.963l13.326 2.435 2.594 1.432 2.134-9.74-3.776.071-19.274-3.802s-5.202-.986-4.748 3.399"
    />
  </g>
</svg>

<svg width="70" height="70" viewBox="0 0 70 70" fill="none" xmlns="http://www.w3.org/2000/svg">
  <path
    fill-rule="evenodd"
    clip-rule="evenodd"
    d="M63.127 56.125C60.919 65.735 51.337 71.738 41.726 69.53L13.86 63.127C4.25099 60.92 -1.75001 51.337 0.456993 41.727L6.85999 13.86C9.06799 4.251 18.65 -1.75 28.26 0.458L56.125 6.859C65.735 9.068 71.737 18.649 69.529 28.261L63.127 56.125ZM24.076 22.988L25.563 23.329L24.788 26.7L10.416 21.101L11.213 17.631L12.899 18.018C12.899 18.018 14.222 5.9 25.403 7.216L55.966 12.776C55.966 12.776 65.029 15.589 63.482 25.047L61.662 35.695L58.371 39.115C58.371 39.115 57.99 39.862 58.441 40.175C58.891 40.486 59.839 43.628 59.839 43.628L57.73 55.984C57.73 55.984 55.45 64.542 46.534 62.912C37.617 61.28 15.3 57.092 15.3 57.092C15.3 57.092 5.675 55.82 8.27 43.158L6.12 42.977L6.787 39.164L22.855 39.201L22.202 42.497L20.326 42.483C20.326 42.483 18.202 46.276 23.053 46.973L43.166 50.758L46.325 52.006L48.268 42.64L45.188 42.871L31.511 40.146C31.511 40.146 28.987 39.776 29.236 37.326L30.549 31.156C30.549 31.156 31.119 28.677 33.819 29.193L47.145 31.628L49.739 33.06L51.873 23.32L48.097 23.391L28.823 19.589C28.823 19.589 23.622 18.603 24.076 22.988Z"
    fill="white"
  />
</svg>
